ui-icons/icons/gauge-24.svg

<svg width="24px" height="24px" viewBox="0 0 24 24" version="1.1" xmlns="http://www.w3.org/2000/svg" xmlns:xlink="http://www.w3.org/1999/xlink">
  <path d="M13.9999996,6 C15.5904948,6 17.1809896,6.42161228 18.7714844,7.26483684 L19.1128012,7.45110492 C19.6614982,7.76204711 20.0004415,8.34417672 19.9999996,8.97485352 L19.9999996,17.25 C19.9999996,18.1312394 19.3486334,18.8603439 18.5010925,18.9821212 L18.4999996,21.75 C18.4999996,22.1642136 18.1642136,22.5 17.75,22.5 C17.3357864,22.5 16.9999996,22.1642136 16.9999996,21.75 L16.9999996,19 L10.9999996,19 L10.9999996,21.75 C10.9999996,22.1642136 10.6642136,22.5 10.25,22.5 C9.83578644,22.5 9.49999957,22.1642136 9.49999957,21.75 L9.49990348,18.982264 C8.651877,18.860915 7.99999957,18.1315845 7.99999957,17.25 L7.99999957,8.97485352 C7.99955848,8.34417672 8.33850183,7.76204711 8.88719881,7.45110492 C10.5917969,6.48399369 12.2958984,6 13.9999996,6 Z M14,7.5 C12.566045,7.5 11.1144711,7.91205498 9.62674269,8.75612402 C9.5483574,8.80054433 9.5,8.8837057 9.5,8.97485359 L9.5,17.25 C9.5,17.3744638 9.59245276,17.4802279 9.71238266,17.4973894 L9.733,17.5 L18.266,17.5 L18.2877588,17.4973691 C18.3876457,17.483017 18.4684441,17.4071975 18.4926023,17.3103259 L18.5,17.2500001 L18.5,8.97380239 C18.5,8.8837057 18.4516426,8.80054433 18.3942398,8.76779375 L18.0688733,8.59010574 C16.6882651,7.85815572 15.3371546,7.5 14,7.5 Z M6.75,3 C6.75,2.58578644 7.08578644,2.25 7.5,2.25 L8.5,2.25 C8.91421356,2.25 9.25,2.58578644 9.25,3 C9.25,3.41421356 8.91421356,3.75 8.5,3.75 L7.5,3.75 C7.08578644,3.75 6.75,3.41421356 6.75,3 Z M10.75,3 C10.75,2.58578644 11.0857864,2.25 11.5,2.25 L12.5,2.25 C12.9142136,2.25 13.25,2.58578644 13.25,3 C13.25,3.41421356 12.9142136,3.75 12.5,3.75 L11.5,3.75 C11.0857864,3.75 10.75,3.41421356 10.75,3 L10.75,3 Z M14.75,3 C14.75,2.58578644 15.0857864,2.25 15.5,2.25 L16.5,2.25 C16.9142136,2.25 17.25,2.58578644 17.25,3 C17.25,3.41421356 16.9142136,3.75 16.5,3.75 L15.5,3.75 C15.0857864,3.75 14.75,3.41421356 14.75,3 L14.75,3 Z M18.75,3 C18.75,2.58578644 19.0857864,2.25 19.5,2.25 L20.5,2.25 C20.9142136,2.25 21.25,2.58578644 21.25,3 C21.25,3.41421356 20.9142136,3.75 20.5,3.75 L19.5,3.75 C19.0857864,3.75 18.75,3.41421356 18.75,3 Z M4,5.75 C4.41421356,5.75 4.75,6.08578644 4.75,6.5 L4.75,7.5 C4.75,7.91421356 4.41421356,8.25 4,8.25 C3.58578644,8.25 3.25,7.91421356 3.25,7.5 L3.25,6.5 C3.25,6.08578644 3.58578644,5.75 4,5.75 Z M4,9.75 C4.41421356,9.75 4.75,10.0857864 4.75,10.5 L4.75,11.5 C4.75,11.9142136 4.41421356,12.25 4,12.25 C3.58578644,12.25 3.25,11.9142136 3.25,11.5 L3.25,10.5 C3.25,10.0857864 3.58578644,9.75 4,9.75 L4,9.75 Z M4,13.75 C4.41421356,13.75 4.75,14.0857864 4.75,14.5 L4.75,15.5 C4.75,15.9142136 4.41421356,16.25 4,16.25 C3.58578644,16.25 3.25,15.9142136 3.25,15.5 L3.25,14.5 C3.25,14.0857864 3.58578644,13.75 4,13.75 L4,13.75 Z M4,17.75 C4.41421356,17.75 4.75,18.0857864 4.75,18.5 L4.75,19.5 C4.75,19.9142136 4.41421356,20.25 4,20.25 C3.58578644,20.25 3.25,19.9142136 3.25,19.5 L3.25,18.5 C3.25,18.0857864 3.58578644,17.75 4,17.75 Z" />
</svg>

<svg xmlns="http://www.w3.org/2000/svg" width="24" height="24" viewBox="0 0 24 24"><path d="M14 6q2.385 0 4.771 1.265l.342.186c.548.311.887.893.887 1.524v8.275a1.75 1.75 0 0 1-1.499 1.732L18.5 21.75a.75.75 0 1 1-1.5 0V19h-6v2.75a.75.75 0 1 1-1.5 0v-2.768A1.75 1.75 0 0 1 8 17.25V8.975c0-.63.339-1.213.887-1.524Q11.444 6.001 14 6m0 1.5c-1.434 0-2.886.412-4.373 1.256a.25.25 0 0 0-.127.219v8.275c0 .124.092.23.212.247l.021.003h8.533l.022-.003a.25.25 0 0 0 .205-.187l.007-.06V8.974c0-.09-.048-.173-.106-.206l-.325-.178C16.689 7.858 15.337 7.5 14 7.5M6.75 3a.75.75 0 0 1 .75-.75h1a.75.75 0 0 1 0 1.5h-1A.75.75 0 0 1 6.75 3m4 0a.75.75 0 0 1 .75-.75h1a.75.75 0 1 1 0 1.5h-1a.75.75 0 0 1-.75-.75m4 0a.75.75 0 0 1 .75-.75h1a.75.75 0 1 1 0 1.5h-1a.75.75 0 0 1-.75-.75m4 0a.75.75 0 0 1 .75-.75h1a.75.75 0 1 1 0 1.5h-1a.75.75 0 0 1-.75-.75M4 5.75a.75.75 0 0 1 .75.75v1a.75.75 0 0 1-1.5 0v-1A.75.75 0 0 1 4 5.75m0 4a.75.75 0 0 1 .75.75v1a.75.75 0 1 1-1.5 0v-1A.75.75 0 0 1 4 9.75m0 4a.75.75 0 0 1 .75.75v1a.75.75 0 1 1-1.5 0v-1a.75.75 0 0 1 .75-.75m0 4a.75.75 0 0 1 .75.75v1a.75.75 0 1 1-1.5 0v-1a.75.75 0 0 1 .75-.75"/></svg>
